X: 63
T: Kotterjolli
O: Finland
S: printed copy of unknown origin
Z: 2013 John Chambers <jc:trillian.mit.edu>
M: 3/4
L: 1/8
K: C
|: g2 ag e2 | g2 ag e2 | g2 ag B2 | dc c4    :|
|: d2 cd f2 | e2 cc c2 | d2 cd f2 | e2 cc c2 :|
